!!!!SEGMENT: pl-gd--ee-1638--005-014_marenzio-luca--il-primo-libro-de-madrigali-spirituali-a-cinque-voci-vergine-gloriosa.krn
!!!cenid: 15xx:967
!!!COM: Marenzio, Luca
!!!COM-rismID: pe30003955
!!!CDT: ~1553-1599/08/22
!!!CNT: Italian
!!!GTL: Il Primo libro de madrigali spirituali a cinque voci
!!!OTL: Vergine gloriosa
!!!OMV: 014
!!!PDT: 1588
!!!AGN:
!!!SMS-siglum: PL-GD
!!!SMS-shelfmark: Ee 1638
!!!SMS-shelfwork: 005-014 G
!!!SMS-variant:
!!!SMS-altvar:
!!!NIFC-rismSourceID: 990039269
!!!NIFC-islandoraID: pl-gd:57883
!!!URL-pdf-islandora: https://repozytorium.nifc.pl/islandora/object/pl-gd%3A57883/datastream/PDF/view
!!!URL-scan: https://polish.musicsources.pl/pl/lokalizacje/galeria/klocki-introligatorskie/655 @EN{Scan on Polish Music Herritage in Open Access Website} @PL{Skany w portalu Dziedzictwo Muzyki Polskiej w otwartym dostępie}
!!!ONB-nifc: UWAGA: zbiór na stronach: Canto: s. 666-677, Alto: s. 514-525, Tenore: s. 362-373, Bassus: s. 210-221, Quinto: s. 58-69. Uwaga: utwory podzielone wg tytułów w spisach treści dostępnych na końcu każdej księgi głosowej.
!!!AIN: 1 alto 1 bass  1 soprn 1 tenor  1 vox
!!!key: E
**kern	**text	**kern	**text	**kern	**text	**kern	**text	**kern	**text
*part5	*part5	*part4	*part4	*part3	*part3	*part2	*part2	*part1	*part1
*staff5	*staff5	*staff4	*staff4	*staff3	*staff3	*staff2	*staff2	*staff1	*staff1
*I"QVINTO	*	*I"BASSO	*	*I"TENORE	*	*I"ALTO	*	*I"CANTO	*
*I'V	*	*I'B	*	*I'T	*	*I'A	*	*I'S	*
*ICvox	*	*ICvox	*	*ICvox	*	*ICvox	*	*ICvox	*
*Ivox	*	*Ibass 	*	*Itenor 	*	*Ialto	*	*Isoprn	*
*clefC3	*	*clefF3	*	*clefC3	*	*clefC2	*	*clefG2	*
*k[]	*	*k[]	*	*k[]	*	*k[]	*	*k[]	*
*E:	*	*E:	*	*E:	*	*E:	*	*E:	*
*M2/1	*	*M2/1	*	*M2/1	*	*M2/1	*	*M2/1	*
*met(C|)	*	*met(C|)	*	*met(C|)	*	*met(C|)	*	*met(C|)	*
=1-	=1-	=1-	=1-	=1-	=1-	=1-	=1-	=1-	=1-
1r	.	1r	.	1r	.	1r	.	1.ee	VEr-
1.e	VEr-	1.E	VEr-	1.B	VEr-	1.g#X	VEr-	.	.
.	.	.	.	.	.	.	.	2ee\	-gi-
=2-	=2-	=2-	=2-	=2-	=2-	=2-	=2-	=2-	=2-
.	.	.	.	.	.	.	.	1.b	-ne
2e\	-gi-	2E/	-gi-	2B/	-gi-	2g#yX\	-gi-	.	.
1B	-ne	1E	-ne	1e	-ne	1g#	-ne	.	.
.	.	.	.	.	.	.	.	1ee\	glo-
=3-	=3-	=3-	=3-	=3-	=3-	=3-	=3-	=3-	=3-
2c/	glo-	2A\	glo-	2e\	glo-	2a\	glo-	.	.
2B/	-rio-	2G\	-rio-	2g\	-rio-	2b\	-ri-	2ee\	-ri-
2.A/	.	1.F	.	1.a	.	1.cc	-o-	1.ff	-o-
4B/	.	.	.	.	.	.	.	.	.
=4-	=4-	=4-	=4-	=4-	=4-	=4-	=4-	=4-	=4-
2c/	.	.	.	.	.	.	.	.	.
2c/	-ſa e	2C/	-ſa e	2.g\	-ſa e	2cc\	-ſa e	2ee\	-ſa e
2d\	lie-	2.G\	lie-	.	.	2.b\	lie-	2.dd\	lie-
.	.	.	.	8f\	.	.	.	.	.
.	.	.	.	8e\	.	.	.	.	.
2g\	-ta	.	.	1d\	.	.	.	.	.
.	.	8F/	.	.	.	8a\	.	4ee\	.
.	.	8E/	.	.	.	8gny\	.	.	.
=5-	=5-	=5-	=5-	=5-	=5-	=5-	=5-	=5-	=5-
2r	.	4D/	.	.	.	0a	.	4ff\	.
.	.	4E/	.	.	.	.	.	4ee\	.
2f\	e	4F/	.	2.a\	lie-	.	.	2.dd\	.
.	.	4D/	.	.	.	.	.	.	.
1e	lie-	1A	.	.	.	.	.	.	.
.	.	.	.	8g\	.	.	.	8cc#X\	.
.	.	.	.	8f\	.	.	.	8b\	.
!	!	!	!	!	!	!	!	!LO:SIC:v:t=custos dd	!
.	.	.	.	2e\	.	.	.	2cc#X\	.
!	!	!	!	!	!	!	!	!LO:LB:g=original	!
=6-	=6-	=6-	=6-	=6-	=6-	=6-	=6-	=6-	=6-
1d	-ta	2D/	-ta	2f#X\	-ta	2a\	-ta	2dd\	-ta
.	.	4r	.	4r	.	4r	.	4r	.
!	!	!LO:SIC:v:t=custos C	!	!LO:SIC:v:t=custos e	!	!	!	!	!
.	.	4G\	o	4g\	o	4d/	o	4b/	o
!LO:SIC:v:t=custos g	!	!LO:LB:g=original	!	!LO:LB:g=original	!	!LO:SIC:v:t=custos g	!	!	!
1r	.	1C	quan-	1e	quan-	1g	quan-	1ccny	quan-
!LO:LB:g=original	!	!	!	!	!	!LO:LB:g=original	!	!	!
=7-	=7-	=7-	=7-	=7-	=7-	=7-	=7-	=7-	=7-
2r	.	1G	-to	1d	-to	2g\	-to	2b/	-to
2g\	o	.	.	.	.	4r	.	4r	.
.	.	.	.	.	.	4b\	Al-	4gg\	Al-
1c	quan-	1r	.	1r	.	4.cc\	-leg-	4.ee\	-leg-
.	.	.	.	.	.	8b\	-ro è	8dd\	-ro è
.	.	.	.	.	.	4a\	fat-	4cc\	fat-
.	.	.	.	.	.	4cc\	-to il	4ee\	-to il
=8-	=8-	=8-	=8-	=8-	=8-	=8-	=8-	=8-	=8-
1g	-to	00r	.	2r	.	4b\	tuo	4dd\	tuo
.	.	.	.	.	.	4a\	do-	4cc\	dog-
.	.	.	.	2a\	o	2.b\	-glio-	2.dd\	-lio-
1r	.	.	.	1e	quan-	.	.	.	.
.	.	.	.	.	.	4a\	-ſo	4cc\	-ſo
.	.	.	.	.	.	2g#X\	ſta-	2b/	ſta-
=9-	=9-	=9-	=9-	=9-	=9-	=9-	=9-	=9-	=9-
2r	.	.	.	2A/	-to	2a\	-to	2cc#X\	-to
*	*ij	*	*	*	*ij	*	*	*	*
2f#X\	o	.	.	2d\	o	2a\	o	2dd\	o
1g	quan-	.	.	1G	quan-	1b	quan-	1dd	quan-
=10-	=10-	=10-	=10-	=10-	=10-	=10-	=10-	=10-	=10-
!	!	!	!	!	!	!	!	!LO:SIC:v:t=custos gg	!
1f#X	-to	4r	.	1.d	-to	2a\	-to	1dd	-to
.	.	4d\	Al-	.	.	.	.	.	.
.	.	4.B\	-le-	.	.	4r	.	.	.
.	.	.	.	.	.	4dd\	Al-	.	.
.	.	8A\	-gro è	.	.	.	.	.	.
!	!	!	!	!	!	!	!	!LO:LB:g=original	!
1r	.	4G\	fat-	.	.	4.b\	-le-	4r	.
.	.	4G\	-to il	.	.	.	.	4gg\	Al-
.	.	.	.	.	.	8a\	-gro è	.	.
.	.	1c\	tuo	2r	.	4gny\	fat-	4.ee\	-le-
!	!	!	!	!	!	!LO:SIC:v:t=custos g	!	!	!
.	.	.	.	.	.	4e/	-to il	.	.
.	.	.	.	.	.	.	.	8dd\	-gro è
*	*Xij	*	*	*	*Xij	*	*	*	*
!	!	!	!	!	!	!LO:LB:g=original	!	!	!
=11-	=11-	=11-	=11-	=11-	=11-	=11-	=11-	=11-	=11-
4r	.	.	.	4r	.	1g	tuo	2ccny\	fat-
4g\	Al-	.	.	4g\	Al-	.	.	.	.
4.e\	-le-	2C/	dog-	4.e\	-le-	.	.	1gg	-to il
8d\	-gro è	.	.	8d\	-gro è	.	.	.	.
4c/	fat-	1F	-lio-	4c/	fat-	1a	dog-	.	.
4c/	-to il	.	.	4c/	-to il	.	.	.	.
2.A/	tuo	.	.	2fny\	tuo	.	.	2ff\	tuo
=12-	=12-	=12-	=12-	=12-	=12-	=12-	=12-	=12-	=12-
.	.	1A	-ſo	2r	.	1a	-lio-	2ee\	-dog-
4B/	dog-	.	.	.	.	.	.	.	.
1c	-lio-	.	.	2c/	-dog-	.	.	1ff	-lio-
.	.	0G	ſta-	2d\	-lio-	2b\	-ſo	.	.
1g\	-ſo	.	.	2e\	-ſo	1cc\	ſta-	2ee\	-ſo
=13-	=13-	=13-	=13-	=13-	=13-	=13-	=13-	=13-	=13-
.	.	.	.	4g\	ſta-	.	.	1dd	ſta-
.	.	.	.	8f\	.	.	.	.	.
.	.	.	.	8e\	.	.	.	.	.
!	!	!	!	!LO:SIC:v:t=custos e	!	!	!	!	!
1g	ſta-	.	.	2d\	.	2b\	-to	.	.
!	!	!	!	!LO:LB:g=original	!	!	!	!	!
.	.	2C/	-to	2e\	-to	2r	.	2cc\	-to
1g\	-to	2r	.	4.c/	Gior-	4.cc\	Gior-	4.ee\	Gior-
.	.	.	.	8B/	-no	8dd\	-no	8dd\	-no
=14-	=14-	=14-	=14-	=14-	=14-	=14-	=14-	=14-	=14-
.	.	0r	.	4c/	fe-	4cc\	fe-	4ee\	fe-
.	.	.	.	2g\	-li-	2b\	-li-	2dd\	-li-
0r	.	.	.	.	.	.	.	.	.
.	.	.	.	4a\	-ce e	4a\	-ce e	4cc\	-ce e
.	.	.	.	2e\	ſan-	2g#X\	ſan-	2b/	ſan-
.	.	.	.	2e\	-to	2g#\	-to	2b/	-to
=15-	=15-	=15-	=15-	=15-	=15-	=15-	=15-	=15-	=15-
.	.	4.C/	Gior-	4.c/	Gior-	4r	.	4.gg\	Gior-
.	.	.	.	.	.	4.gny\	Gior-	.	.
.	.	8BB/	-no	8d\	-no	.	.	8gg\	-no
!	!	!	!	!	!	!	!	!LO:SIC:v:t=custos gg	!
4.e\	Gior-	4C/	fe-	4c/	fe-	.	.	4gg\	fe-
.	.	.	.	.	.	8a\	-no	.	.
!	!	!	!	!	!	!	!	!LO:LB:g=original	!
.	.	2G\	-li-	2B/	-li-	4b\	fe-	2gg\	-li-
!LO:SIC:v:t=custos e	!	!	!	!	!	!	!	!	!
8d\	-no	.	.	.	.	.	.	.	.
!LO:LB:g=original	!	!	!	!	!	!	!	!	!
4e\	fe-	.	.	.	.	4b\	-li-	.	.
!	!	!LO:SIC:v:t=custos E	!	!	!	!	!	!	!
2d\	-li-	4A\	-ce e	4e\	-ce e	4a\	-ce e	4ee\	-ce e
!	!	!LO:LB:g=original	!	!	!	!	!	!	!
.	.	1E/	ſan-	1e\	ſan-	1g#X\	ſan-	1ee\	ſan-
4c/	-ce	.	.	.	.	.	.	.	.
=16-	=16-	=16-	=16-	=16-	=16-	=16-	=16-	=16-	=16-
1B	e	.	.	.	.	.	.	.	.
!	!	!	!	!	!	!LO:SIC:v:t=custos a	!	!	!
.	.	2E/	-to	4e\	-to	2g#yX\	-to	2b/	-to
.	.	.	.	4e\	Quan-	.	.	.	.
2B/	ſan-	2A\	Quan-	4e\	-do	1r	.	1r	.
.	.	.	.	4e\	ri-	.	.	.	.
2c/	-to	4A\	-do	2f#X\	-ſor-	.	.	.	.
.	.	4A\	ri-	.	.	.	.	.	.
!	!	!	!	!	!	!LO:LB:g=original	!	!	!
=17-	=17-	=17-	=17-	=17-	=17-	=17-	=17-	=17-	=17-
4c/	Quan-	4.B\	-ſor-	1g	-ſe	1r	.	1r	.
4c/	-do ri-	.	.	.	.	.	.	.	.
.	.	8A\	-ſe	.	.	.	.	.	.
4.d\	-ſor-	4G\	il	.	.	.	.	.	.
.	.	4G\	tuo	.	.	.	.	.	.
8c/	-ſe	.	.	.	.	.	.	.	.
4B/	il	4A\	fi-	1r	.	2a\	Quan-	2cc\	Quan-
4B/	tuo	4B\	-gliuol a-	.	.	.	.	.	.
4c/	fi-	2c\	-ma-	.	.	4a\	-do	4cc\	-do
4d\	-gliuol a-	.	.	.	.	4a\	ri-	4cc\	ri-
=18-	=18-	=18-	=18-	=18-	=18-	=18-	=18-	=18-	=18-
2e\	-ma-	1G	-to	4r	.	4.b\	-ſor-	4.dd\	-ſor-
!	!	!	!	!LO:SIC:v:t=custos d	!	!	!	!	!
.	.	.	.	4d\	Quã(n)-	.	.	.	.
.	.	.	.	.	.	8a\	-ſe il	8cc\	-ſe il
!	!	!	!	!LO:LB:g=original	!	!	!	!	!
2d\	-to	.	.	4d\	-do	4gny\	tuo	4b/	tuo
.	.	.	.	4d\	ri-	4g\	fi-	4b/	fi-
2r	.	1r	.	4e\	-ſor-	4a\	-gliuol	4cc\	-gliuol
.	.	.	.	4d\	-ſe il	4b\	a-	4dd\	a-
2A/	Quan-	.	.	4c/	tuo	2cc\	-ma-	2ee\	-ma-
.	.	.	.	4c/	fi-	.	.	.	.
=19-	=19-	=19-	=19-	=19-	=19-	=19-	=19-	=19-	=19-
4A/	-do	1r	.	2.d\	-gliuol	1b	-to	0dd	-to
4A/	ri-	.	.	.	.	.	.	.	.
4.B/	-ſor-	.	.	.	.	.	.	.	.
.	.	.	.	4e\	a-	.	.	.	.
!LO:SIC:v:t=custos G	!	!	!	!	!	!	!	!	!
8A/	-ſe il	.	.	.	.	.	.	.	.
!LO:LB:g=original	!	!	!	!	!	!	!	!	!
4G/	tuo	2D/	Quã(n)-	4f#X\	-ma-	1r	.	.	.
4G/	fig-	.	.	2g\	.	.	.	.	.
4A/	-liuol`	4D/	-do	.	.	.	.	.	.
4B/	a-	4D/	ri-	4f#X\	.	.	.	.	.
=20-	=20-	=20-	=20-	=20-	=20-	=20-	=20-	=20-	=20-
2A/	-ma-	4.E/	-ſor-	1g	-to	4r	.	4r	.
.	.	.	.	.	.	4g\	il	4b/	il
.	.	8D/	-ſe il	.	.	.	.	.	.
4G/	-to	4C/	tuo	.	.	4e/	tuo	4ee\	tuo
!	!	!LO:SIC:v:t=custos D	!	!	!	!	!	!	!
4G/	il	4C/	fi-	.	.	4g\	fig-	4ee\	fig-
!	!	!LO:LB:g=original	!	!	!	!	!	!	!
4g\	tuo	4D/	-gliuol`	1r	.	4f\	-liuol	4dd\	-liuol
4e\	fig-	4E/	a-	.	.	4g\	a-	4cc\	a-
4a\	-liol`	2F/	-ma-	.	.	2a\	-ma-	2cc\	-ma-
4g\	a-	.	.	.	.	.	.	.	.
=21-	=21-	=21-	=21-	=21-	=21-	=21-	=21-	=21-	=21-
!	!	!	!	!	!	!	!	!LO:SIC:v:t=custos dd	!
2fny\	-ma-	1C	-to	2r	.	2.g\	-to	1cc	-to
1e	-to	.	.	1g	Dhe	.	.	.	.
.	.	.	.	.	.	4a\	.	.	.
!	!	!	!	!	!	!LO:SIC:v:t=custos a	!	!LO:LB:g=original	!
.	.	1G	Dhe	.	.	1b	.	2r	.
1d\	Dhe	.	.	1d\	fa	.	.	1dd\	Dhe
!	!	!	!	!	!	!LO:LB:g=original	!	!	!
=22-	=22-	=22-	=22-	=22-	=22-	=22-	=22-	=22-	=22-
.	.	1D	fa	.	.	1a	Dhe	.	.
1f	fa	.	.	1A	Dhe	.	.	1ff	fa
.	.	1A	Dhe	.	.	1cc	fa	.	.
1c\	Dhe	.	.	2c/	fa	.	.	1ee\	Dhe
=23-	=23-	=23-	=23-	=23-	=23-	=23-	=23-	=23-	=23-
.	.	2.c\	fa	4r	.	4r	.	.	.
.	.	.	.	4c/	dhe	4g\	dhe	.	.
2.e\	fa	.	.	2.e\	fa	4cc\	fa	2.gg\	fa
.	.	4G\	ch`an-	.	.	4b\	ch`an-	.	.
.	.	2.A\	-ch`io	.	.	2.a\	-ch`io	.	.
4d\	ch`an-	.	.	4d\	ch`ã(n)-	.	.	4ff\	ch`ã(n)-
2.c/	-ch`io	.	.	2.c/	-ch`io	.	.	2.ee\	-ch`io
.	.	4E/	ri-	.	.	4g\	ri-	.	.
=24-	=24-	=24-	=24-	=24-	=24-	=24-	=24-	=24-	=24-
.	.	2.F/	-ſor-	.	.	2.f\	-ſor-	.	.
!LO:SIC:v:t=custos A	!	!	!	!LO:SIC:v:t=custos A	!	!	!	!	!
4B/	ri-	.	.	4B/	ri-	.	.	4dd\	ri-
!LO:LB:g=original	!	!	!	!LO:LB:g=original	!	!	!	!	!
2.A/	-ſor-	.	.	2.A/	-ſor-	.	.	2.cc\	-ſor-
.	.	4C/	-ga	.	.	4e/	-ga	.	.
.	.	1D	dal	.	.	1d	dal	.	.
4G/	-ga	.	.	4G/	-ga	.	.	4b/	-ga
4.F/	dal	.	.	1F/	dal	.	.	1a/	dal
!LO:N:vis=4	!	!	!	!	!	!	!	!	!
8G/	pec-	.	.	.	.	.	.	.	.
=25-	=25-	=25-	=25-	=25-	=25-	=25-	=25-	=25-	=25-
0A	-ca-	1D	pec-	.	.	1a	pec-	.	.
.	.	.	.	2fny\	pec-	.	.	2dd\	pec-
.	.	1AA	-ca-	1e	-ca-	1a	-ca-	1cc	-ca-
=26-	=26-	=26-	=26-	=26-	=26-	=26-	=26-	=26-	=26-
1B	-to	1E	-to	2e\	-to	1g#X	-to	1b	-to
.	.	.	.	2e\	quan-	.	.	.	.
2c/	quan-	2A\	quan-	4e\	-do	1r	.	1r	.
.	.	.	.	4e\	ri-	.	.	.	.
4c/	-do	4A\	-do	2f#X\	-ſor-	.	.	.	.
!	!	!LO:SIC:v:t=custos B	!	!	!	!	!	!	!
4c/	ri-	4A\	ri-	.	.	.	.	.	.
!	!	!LO:LB:g=original	!	!	!	!	!	!	!
=27-	=27-	=27-	=27-	=27-	=27-	=27-	=27-	=27-	=27-
4.d\	-ſor-	4.B\	-ſor-	1g	-ſe	1r	.	1r	.
8c/	-ſe il	8A\	-ſe il	.	.	.	.	.	.
4B/	tuo	4G\	tuo	.	.	.	.	.	.
4B/	fig-	4G\	fig-	.	.	.	.	.	.
4c/	-liuol`	4A\	-liuol`	1r	.	2a\	quan-	2cc\	quan-
4d\	a-	4B\	a-	.	.	.	.	.	.
2e\	-ma-	2c\	-ma-	.	.	4a\	-do	4cc\	-do
.	.	.	.	.	.	4a\	ri-	4cc\	ri-
=28-	=28-	=28-	=28-	=28-	=28-	=28-	=28-	=28-	=28-
2d\	-to	1G	-to	4r	.	4.b\	-ſor-	4.dd\	-ſor-
.	.	.	.	4d\	quan-	.	.	.	.
!	!	!	!	!	!	!LO:SIC:v:t=custos g	!	!LO:SIC:v:t=custos b	!
.	.	.	.	.	.	8a\	-ſe il	8cc\	-ſe il
!	!	!	!	!	!	!LO:LB:g=original	!	!LO:LB:g=original	!
2r	.	.	.	4d\	-do	4gny\	tuo	4b/	tuo
.	.	.	.	4d\	ri-	4g\	fig-	4b/	fig-
2A/	quan-	1r	.	4e\	-ſor-	4a\	-liuol	4cc\	-liuol
.	.	.	.	4d\	-ſe il	4b\	a-	4dd\	a-
4A/	-do	.	.	4c/	tuo	2cc\	-ma-	2ee\	-ma-
!LO:SIC:v:t=custos B	!	!	!	!	!	!	!	!	!
4A/	ri-	.	.	4c/	fig-	.	.	.	.
!LO:LB:g=original	!	!	!	!	!	!	!	!	!
=29-	=29-	=29-	=29-	=29-	=29-	=29-	=29-	=29-	=29-
4.B/	-ſor-	1r	.	2.d\	-liuol`-	1b	-to	0dd	-to
8A/	-ſe il	.	.	.	.	.	.	.	.
4G/	tuo	.	.	.	.	.	.	.	.
!	!	!	!	!LO:SIC:v:t=custos f#	!	!	!	!	!
4G/	fig-	.	.	4e\	-a	.	.	.	.
!	!	!	!	!LO:LB:g=original	!	!	!	!	!
4A/	-liuol`	2D/	quan-	2f#X\	ma-	1r	.	.	.
4B/	a-	.	.	.	.	.	.	.	.
2A/	-ma-	4D/	-do	1g\	.	.	.	.	.
.	.	4D/	ri-	.	.	.	.	.	.
=30-	=30-	=30-	=30-	=30-	=30-	=30-	=30-	=30-	=30-
4G/	-to	4.E/	-ſor-	.	.	4r	.	4r	.
4G/	il	.	.	.	.	4g\	il	4b/	il
.	.	8D/	-ſe il	.	.	.	.	.	.
4g\	tuo	4C/	tuo	4f#X\	.	4e/	tuo	4ee\	tuo
4e\	fig-	4C/	fig-	1g	-to	4g\	fig-	4ee\	fig-
4a\	-liuol`	4D/	-liuol`	.	.	4f\	-liuol	4dd\	-liuol
4g\	a-	4E/	a-	.	.	4g\	a-	4cc\	a-
2f\	-ma-	2F/	-ma-	.	.	2a\	-ma-	2cc\	-ma-
!	!	!	!	!LO:N:vis=1 	!	!	!	!	!
.	.	.	.	4r	.	.	.	.	.
=31-	=31-	=31-	=31-	=31-	=31-	=31-	=31-	=31-	=31-
!	!	!LO:SIC:v:t=custos G	!	!	!	!	!	!	!
1e	-to	1C	-to	2r	.	2.g\	-to	1cc	-to
.	.	.	.	1g	Dhe	.	.	.	.
.	.	.	.	.	.	4a\	.	.	.
!	!	!LO:LB:g=original	!	!	!	!	!	!	!
1d	Dhe	1G	Dhe	.	.	1b	.	2r	.
.	.	.	.	1d\	fa	.	.	1dd\	Dhe
=32-	=32-	=32-	=32-	=32-	=32-	=32-	=32-	=32-	=32-
1f	fa	1D	fa	.	.	1a	Dhe	.	.
*	*	*	*	*	*ij	*	*	*	*
.	.	.	.	1A	Dhe	.	.	1ff	fa
1c	Dhe	1A	Dhe	.	.	1cc	fa	.	.
.	.	.	.	2c/	fa	.	.	1ee\	Dhe
*	*	*	*	*	*Xij	*	*	*	*
=33-	=33-	=33-	=33-	=33-	=33-	=33-	=33-	=33-	=33-
2.e\	fa	2.c\	fa	4r	.	4r	.	.	.
!	!	!	!	!	!	!LO:SIC:v:t=custos cc	!	!	!
.	.	.	.	4c/	Dhe	4g\	Dhe	.	.
!	!	!	!	!	!	!LO:LB:g=original	!	!	!
.	.	.	.	2.e\	fa	4cc\	fa	2.gg\	fa
!LO:SIC:v:t=custos c	!	!	!	!	!	!	!	!	!
4d\	ch`an-	4G\	ch`an-	.	.	4b\	ch`an-	.	.
!LO:LB:g=original	!	!	!	!	!	!	!	!	!
2.c/	-ch`io	2.A\	-ch`io	.	.	2.a\	-ch`io	.	.
.	.	.	.	4d\	ch`an-	.	.	4ff\	ch`an-
.	.	.	.	2.c/	-ch`io	.	.	2.ee\	-ch`io
4B/	ri-	4E/	ri-	.	.	4g\	ri-	.	.
=34-	=34-	=34-	=34-	=34-	=34-	=34-	=34-	=34-	=34-
2.A/	-ſor-	2.F/	-ſor-	.	.	2.f\	-ſor-	.	.
!	!	!	!	!	!	!	!	!LO:SIC:v:t=custos cc	!
.	.	.	.	4B/	ri-	.	.	4dd\	ri-
!	!	!	!	!	!	!	!	!LO:LB:g=original	!
.	.	.	.	2.A/	-ſor-	.	.	2.cc\	-ſor-
4G/	-ga	4C/	-ga	.	.	4e/	-ga	.	.
2.F/	dal	1D	dal	.	.	1d	dal	.	.
.	.	.	.	4G/	-ga	.	.	4b/	-ga
.	.	.	.	1F/	dal	.	.	1a/	dal
4G/	pec-	.	.	.	.	.	.	.	.
=35-	=35-	=35-	=35-	=35-	=35-	=35-	=35-	=35-	=35-
0A	-ca-	1D	pec-	.	.	1a	pec-	.	.
.	.	.	.	2fny\	pec-	.	.	2dd\	pec-
.	.	1AA	-ca-	1e	-ca-	1a	-ca-	1cc	-ca-
=36-	=36-	=36-	=36-	=36-	=36-	=36-	=36-	=36-	=36-
00B	-to.	00E	-to.	00e	-to.	00g#X	-to.	00b	-to.
==	==	==	==	==	==	==	==	==	==
*-	*-	*-	*-	*-	*-	*-	*-	*-	*-
!!!system-decoration: [(s1,s2,s3,s4,s5)]
!!!ENC: Filip Voros
!!!END: 2022-06-29
!!!ENC: Natalia Wrzos
!!!END: 2022-07-16
